Newaita-dark/actions/24/stroke-cap-square.svg

<?xml version="1.0" encoding="UTF-8"?>
<svg xmlns="http://www.w3.org/2000/svg" xmlns:xlink="http://www.w3.org/1999/xlink" width="24pt" height="24pt" viewBox="0 0 24 24" version="1.1">
<g id="surface1">
<path style=" stroke:none;fill-rule:nonzero;fill:rgb(74.117649%,74.117649%,74.117649%);fill-opacity:1;" d="M 3.96875 1.179688 L 3.96875 23.011719 L 9.921875 23.011719 L 9.921875 7.132812 L 13.890625 7.132812 L 13.890625 23.011719 L 19.84375 23.011719 L 19.84375 1.179688 Z M 5.457031 2.667969 L 18.355469 2.667969 L 18.355469 21.523438 L 15.378906 21.523438 L 15.378906 5.644531 L 8.433594 5.644531 L 8.433594 21.523438 L 5.457031 21.523438 Z M 5.457031 2.667969 "/>
</g>
</svg>

<svg xmlns="http://www.w3.org/2000/svg" width="32" height="32" viewBox="0 0 24 24"><path d="M3.969 1.18v21.832h5.953V7.132h3.969v15.88h5.953V1.18zm1.488 1.488h12.898v18.855H15.38V5.645H8.434v15.878H5.457zm0 0" fill="#bdbdbd"/></svg>
